X: 0
T: Winchester Old
Z: Est's Psalmes, 1592
Z: Copyright © 2006 by Douglas D. Anderson
Z: Released To The Public Domain
L: 1/4
M: none
Q: 1/4=368
V: P1 name="Church Organ"
%%MIDI program 1 19
V: P2 name="French Horn"
%%MIDI program 2 60
V: P3 name="Trombone"
%%MIDI program 3 57
V: P4 name="Tuba"
%%MIDI program 4 58
K: G
[V: P1]  G2 | B3 B A2 G2 | c2 c2 B2 A2 | B2 d2 d2 ^c2 | d6 B2 | e3 d c2 B2 | A2 G2 F2 B2 | A2 G2 G2 F2 | G6|]
[V: P2]  D2 | G3 G F2 E2 | E2 G2 G2 F2 | G2 A2 A2 A2 | F6 G2 | G3 G G2 G2 | F2 E2 ^D2 =D2 | F2 E2 E2 D2 | D6|]
[V: P3]  B,2 | D3 D D2 B,2 | C2 E2 D2 D2 | D2 D2 E2 E2 | D6 D2 | C3 B, C2 D2 | D2 B,2 B,2 B,2 | D2 B,2 C2 A,2 | B,6|]
[V: P4]  G,2 | G,3 G, D,2 E,2 | C,2 C,2 G,2 D,2 | G,2 F,2 A,2 A,2 | D,6 G,2 | C3 G, E,2 G,2 | D,2 E,2 B,,2 G,2 | D,2 E,2 C,2 D,2 | G,6|]

